is/OpenDocumentChartFile.svg

<svg xmlns="http://www.w3.org/2000/svg" viewBox="0 0 48 48" height="1em" width="1em">
  <path style="stroke:none;fill-rule:nonzero;fill:#b8c300;fill-opacity:1" d="M10 2c-.945 0-2 1.055-2 2v40c0 .89 1.11 2 2 2h28c.89 0 1.984-1.11 2-2V14L28 2Zm0 0"/>
  <path style="stroke:none;fill-rule:nonzero;fill:#000;fill-opacity:.196078" d="m30 14 10 10V14Zm0 0"/>
  <path style="stroke:none;fill-rule:nonzero;fill:#fff;fill-opacity:1" d="M26 34V24h4v10Zm0 0"/>
  <path style="stroke:none;fill-rule:nonzero;fill:#fff;fill-opacity:.392157" d="m28 2 12 12H30c-.89 0-2-1.11-2-2Zm0 0"/>
  <path style="stroke:none;fill-rule:nonzero;fill:#fff;fill-opacity:1" d="M20 34V18h4v16Zm-6 0V22h4v12Zm18 0v-4h4v4Zm0 0"/>
</svg>

<svg xmlns="http://www.w3.org/2000/svg" viewBox="0 0 48 48" version="1.1" height="1em" width="1em">
  <g>
    <path style="stroke:none;fill-rule:nonzero;fill:rgb(72.156863%,76.470588%,0%);fill-opacity:1" d="M 10 2 C 9.054688 2 8 3.054688 8 4 L 8 44 C 8 44.890625 9.109375 46 10 46 L 38 46 C 38.890625 46 39.984375 44.890625 40 44 L 40 14 L 28 2 Z M 10 2"/>
    <path style="stroke:none;fill-rule:nonzero;fill:rgb(0%,0%,0%);fill-opacity:0.196078" d="M 30 14 L 40 24 L 40 14 Z M 30 14"/>
    <path style="stroke:none;fill-rule:nonzero;fill:rgb(100%,100%,100%);fill-opacity:1" d="M 26 34 L 26 24 L 30 24 L 30 34 Z M 26 34"/>
    <path style="stroke:none;fill-rule:nonzero;fill:rgb(100%,100%,100%);fill-opacity:0.392157" d="M 28 2 L 40 14 L 30 14 C 29.109375 14 28 12.890625 28 12 Z M 28 2"/>
    <path style="stroke:none;fill-rule:nonzero;fill:rgb(100%,100%,100%);fill-opacity:1" d="M 20 34 L 20 18 L 24 18 L 24 34 Z M 20 34"/>
    <path style="stroke:none;fill-rule:nonzero;fill:rgb(100%,100%,100%);fill-opacity:1" d="M 14 34 L 14 22 L 18 22 L 18 34 Z M 14 34"/>
    <path style="stroke:none;fill-rule:nonzero;fill:rgb(100%,100%,100%);fill-opacity:1" d="M 32 34 L 32 30 L 36 30 L 36 34 Z M 32 34"/>
  </g>
</svg>
